X: 92
T: No_2_Song_of_Elder_Brother_After_the_Flood.krn
N: Derived from No_2_Song_of_Elder_Brother_After_the_Flood.krn
%%abc-version 2.0
%%abcx-abcm2ps-target-version 5.9.1 (29 Sep 2008)
%%abc-creator hum2abc beta
%%abcx-conversion-date 2019/03/15 08:37:56
%%humdrum-veritas 1985344536
%%humdrum-veritas-data 2585527347
%%linebreak <none>
%%barnumbers 0
L: 1/8
M: 2/4
K: G clef=bass
G,2 [I:setbarnb 1]| 
D2D2 ||  
[M:3/4]D4D2 | 
D2(3CA,A, A, z | 
D2(3CA,A,A,2 | 
!fermata!C4A,2 | 
G,2(3E,D,-D, D, z | 
G,4A,G, ||  
[M:2/4]G,2(3E,D,D, | 
D, zG,2 | 
G,4 | 
G,4- ||  
[M:3/4]G,4A,2 ||  
[M:2/4]C2(CA,) | 
(C2A,2) | 
G,2E,2 | 
D,2z2 ||  
[M:3/4]!fermata!G,4A,G, | 
G,2E,D, D, z | 
G,4E,2 | 
G,6 | 
G,6 |]  



